X: 68
T:Davie's Brae
% Nottingham Music Database
S:Jim Johnstone, via Phil Rowe
M:6/8
K:G
d|"G"Bdd gdd|"C"efg "G"dBG|"A7"A2A a2g|"D"fdd "D7"d2c|
"G"Bdd gdd|"C"efg "G"dBG|"Am"ABc "D7"def|g3 -g2::
f|"Em"efg BBB|efg B2B|"Em"efg "A7"a2g|"D"fdd "D7"def|
"G"g2g "D7"def|"G"gfe dcB|"Am"ABc "D7"def|"G"g3 -g2:|<end>
<start>
